icon/lg/chrome.svg

<?xml version="1.0" encoding="UTF-8" standalone="no" ?>
<svg viewBox="0 0 256 257" version="1.1" xmlns="http://www.w3.org/2000/svg" xmlns:xlink="http://www.w3.org/1999/xlink" preserveAspectRatio="xMidYMid" height="1em" width="1em">
  <defs>
    <linearGradient x1="49.9976632%" y1="0.70578635%" x2="49.9976632%" y2="96.9898739%" id="linearGradient-1">
      <stop stop-color="#86BBE5" offset="0%"/>
      <stop stop-color="#1072BA" offset="100%"/>
    </linearGradient>
  </defs>
  <g>
    <path d="M127.788721,0.035213205 C127.788721,0.035213205 203.109766,-3.34525447 243.041541,72.3631362 L121.379917,72.3631362 C121.379917,72.3631362 98.4209078,71.6236589 78.8071527,99.477304 C73.1730399,111.168088 67.1163686,123.211004 73.9125172,146.944704 C64.1232462,130.359285 21.9378267,56.9045392 21.9378267,56.9045392 C21.9378267,56.9045392 51.6929849,3.02833563 127.788721,0.035213205 L127.788721,0.035213205 Z" fill="#EF3F36"/>
    <path d="M239.132875,192.228886 C239.132875,192.228886 204.377442,259.169188 118.87978,255.859147 C129.443741,237.583494 179.728198,150.501238 179.728198,150.501238 C179.728198,150.501238 191.876754,130.993122 177.544979,100.075928 C170.255846,89.335901 162.82586,78.1028886 138.88088,72.1166437 C158.142503,71.9405777 242.830261,72.1166437 242.830261,72.1166437 C242.830261,72.1166437 274.557359,124.830812 239.132875,192.228886 L239.132875,192.228886 Z" fill="#FCD900"/>
    <path d="M16.9727648,192.757084 C16.9727648,192.757084 -23.6280605,129.197249 22.0082531,56.7988996 C32.5370014,75.074553 82.821458,162.156809 82.821458,162.156809 C82.821458,162.156809 93.6671252,182.439615 127.577442,185.46795 C140.500688,184.517194 153.952132,183.70729 171.136176,165.995048 C161.663824,182.756534 119.161486,256 119.161486,256 C119.161486,256 57.6088033,257.126823 16.9727648,192.757084 L16.9727648,192.757084 Z" fill="#61BC5B"/>
    <path d="M118.844567,256.492985 L135.958184,185.080605 C135.958184,185.080605 154.762036,183.601651 170.537552,166.311967 C160.748281,183.531224 118.844567,256.492985 118.844567,256.492985 L118.844567,256.492985 Z" fill="#5AB055"/>
    <path d="M70.4616231,129.056396 C70.4616231,97.5757909 95.9911967,72.0462173 127.471802,72.0462173 C158.952407,72.0462173 184.481981,97.5757909 184.481981,129.056396 C184.481981,160.537001 158.952407,186.066575 127.471802,186.066575 C95.9911967,186.031362 70.4616231,160.537001 70.4616231,129.056396 L70.4616231,129.056396 Z" fill="#FFFFFF"/>
    <path d="M80.0044017,129.056396 C80.0044017,102.857772 101.237964,81.5889959 127.471802,81.5889959 C153.670426,81.5889959 174.939202,102.822558 174.939202,129.056396 C174.939202,155.255021 153.70564,176.523796 127.471802,176.523796 C101.273177,176.523796 80.0044017,155.255021 80.0044017,129.056396 L80.0044017,129.056396 Z" fill="url(#linearGradient-1)"/>
    <path d="M242.795048,72.1518569 L172.333425,92.8220083 C172.333425,92.8220083 161.699037,77.2225585 138.845667,72.1518569 C158.670702,72.0462173 242.795048,72.1518569 242.795048,72.1518569 L242.795048,72.1518569 Z" fill="#EACA05"/>
    <path d="M72.5392022,144.338927 C62.6442916,127.190096 21.9378267,56.9045392 21.9378267,56.9045392 L74.1237964,108.527098 C74.1237964,108.527098 68.7713893,119.548831 70.778542,135.324347 L72.5392022,144.338927 L72.5392022,144.338927 Z" fill="#DF3A32"/>
  </g>
</svg>

<svg width="256" height="257" xmlns="http://www.w3.org/2000/svg" preserveAspectRatio="xMidYMid"><defs><linearGradient x1="49.998%" y1=".706%" x2="49.998%" y2="96.99%" id="a"><stop stop-color="#86BBE5" offset="0%"/><stop stop-color="#1072BA" offset="100%"/></linearGradient></defs><path d="M127.789.035s75.32-3.38 115.253 72.328H121.38s-22.96-.74-42.573 27.114c-5.634 11.691-11.69 23.734-4.894 47.468-9.79-16.586-51.975-90.04-51.975-90.04S51.693 3.028 127.788.035Z" fill="#EF3F36"/><path d="M239.133 192.229s-34.756 66.94-120.253 63.63c10.564-18.276 60.848-105.358 60.848-105.358s12.149-19.508-2.183-50.425c-7.29-10.74-14.72-21.973-38.664-27.96 19.262-.175 103.95 0 103.95 0s31.726 52.715-3.698 120.113Z" fill="#FCD900"/><path d="M16.973 192.757s-40.601-63.56 5.035-135.958c10.529 18.276 60.813 105.358 60.813 105.358s10.846 20.283 44.756 23.31c12.924-.95 26.375-1.76 43.56-19.472C161.663 182.757 119.16 256 119.16 256s-61.552 1.127-102.188-63.243Z" fill="#61BC5B"/><path d="m118.845 256.493 17.113-71.412s18.804-1.48 34.58-18.769c-9.79 17.22-51.693 90.181-51.693 90.181Z" fill="#5AB055"/><path d="M70.462 129.056c0-31.48 25.53-57.01 57.01-57.01 31.48 0 57.01 25.53 57.01 57.01 0 31.481-25.53 57.01-57.01 57.01-31.48-.035-57.01-25.529-57.01-57.01Z" fill="#FFF"/><path d="M80.004 129.056c0-26.198 21.234-47.467 47.468-47.467 26.198 0 47.467 21.234 47.467 47.467 0 26.199-21.233 47.468-47.467 47.468-26.199 0-47.468-21.269-47.468-47.468Z" fill="url(#a)"/><path d="m242.795 72.152-70.462 20.67s-10.634-15.6-33.487-20.67c19.825-.106 103.949 0 103.949 0Z" fill="#EACA05"/><path d="M72.54 144.339c-9.896-17.149-50.602-87.434-50.602-87.434l52.186 51.622s-5.353 11.022-3.345 26.797l1.76 9.015Z" fill="#DF3A32"/></svg>
